storage/app/icons/phosphoricons/fill/film-script-fill.svg

<svg xmlns="http://www.w3.org/2000/svg" fill="currentColor" viewBox="0 0 256 256"><path d="M200 24H56a16 16 0 0 0-16 16v176a16 16 0 0 0 16 16h144a16 16 0 0 0 16-16V40a16 16 0 0 0-16-16M76 188a12 12 0 1 1 12-12 12 12 0 0 1-12 12m0-48a12 12 0 1 1 12-12 12 12 0 0 1-12 12m0-48a12 12 0 1 1 12-12 12 12 0 0 1-12 12"/></svg>

<svg xmlns="http://www.w3.org/2000/svg" viewBox="0 0 256 256" fill="currentColor"><path d="M200,24H56A16,16,0,0,0,40,40V216a16,16,0,0,0,16,16H200a16,16,0,0,0,16-16V40A16,16,0,0,0,200,24ZM76,188a12,12,0,1,1,12-12A12,12,0,0,1,76,188Zm0-48a12,12,0,1,1,12-12A12,12,0,0,1,76,140Zm0-48A12,12,0,1,1,88,80,12,12,0,0,1,76,92Z"/></svg>
